src/Icon/svgs/youtube.svg

<svg xmlns="http://www.w3.org/2000/svg" width="24" height="24" viewBox="0 0 24 24">
  <path fill="#1B1C1D" fill-rule="evenodd" d="M21.5820811,7.16906123 C21.3520641,6.30297338 20.6743556,5.62086979 19.8138705,5.38938817 C18.2541791,4.96875882 12,4.96875882 12,4.96875882 C12,4.96875882 5.74585724,4.96875882 4.18613007,5.38938817 C3.32564525,5.62090639 2.64793626,6.30297338 2.41791939,7.16906123 C2,8.73889555 2,12.014209 2,12.014209 C2,12.014209 2,15.2895218 2.41791939,16.8593564 C2.64793626,17.725444 3.32564525,18.3791299 4.18613007,18.610611 C5.74585724,19.0312412 11.9999997,19.0312412 11.9999997,19.0312412 C11.9999997,19.0312412 18.2541422,19.0312412 19.8138694,18.6106121 C20.6743534,18.3791299 21.3520641,17.7254451 21.5820811,16.8593564 C22,15.2895218 22,12.014209 22,12.014209 C22,12.014209 22,8.73889555 21.5820811,7.16906149 L21.5820811,7.16906123 Z M9.95453182,14.987948 L9.95453182,9.04046991 L15.1817841,12.0142827 L9.95453182,14.987948 L9.95453182,14.987948 Z"/>
</svg>

<svg xmlns="http://www.w3.org/2000/svg" width="24" height="24"  xmlns:v="https://vecta.io/nano"><path fill="#1b1c1d" fill-rule="evenodd" d="M21.582 7.169c-.23-.866-.908-1.548-1.768-1.78C18.254 4.969 12 4.969 12 4.969s-6.254 0-7.814.421c-.86.232-1.538.914-1.768 1.78C2 8.739 2 12.014 2 12.014s0 3.275.418 4.845c.23.866.908 1.52 1.768 1.751 1.56.421 7.814.421 7.814.421s6.254 0 7.814-.421c.86-.231 1.538-.885 1.768-1.751.418-1.57.418-4.845.418-4.845s0-3.275-.418-4.845h0zM9.955 14.988V9.04l5.227 2.974-5.227 2.974h0z"/></svg>
